X:3332
L:1/8
M:4/4
K:C
[M:6/8][K:G] .abc[Q:3/8=128] (d/c/) | B2 d dBd | ece dBG | Bcd de=f | AFA ABc | B2 d dBd | 
 ece dBG | BdB cAF | GAG G2 || d | geg fdf | ece dBG | geg fdf | ece d2 d | geg fdf | ece dBG | 
 BdB cAF | GAG G2 :|

